X:1
T:Keble
T:Joseph Barnby
T:Keble
C:Joseph Barnby
%%score { ( 1 2 ) | ( 3 4 ) }
L:1/8
Q:1/4=122
M:4/4
K:Eb
V:1 treble nm="Piano" snm="Pno."
V:2 treble 
V:3 bass 
V:4 bass 
V:1
 G2 | B2 A2 G2 F2 | E2 D2 C2 A2 | F3 z B4 | G4 F4 | G6 G2 | c2 B2 A2 G2 | F2 A2 G2 B2 | A3 z c4 | %9
 A4 e4 | d6 d2 | e2 c2 B2 G2 | B2 A2 G2 E2 | G3 z F4 | E4 D4 | E6 | E4 E4 |] %17
V:2
 E2 | F2 D2 E2 D2 | E2 =B,2 C2 F2 | D3 z E4 | E4 D4 | E6 _D2 | C2 C2 =E2 E2 | F2 F2 F2 =E2 | %8
 F3 z C4 | F4 E4 | F6 F2 | E2 E2 F2 E2 | _D2 C2 =D2 E2 | E3 z C4 | B,4 B,4 | C6 | C4 B,4 |] %17
V:3
 B,2 | B,2 B,2 B,2 A,2 | G,2 F,2 E,2 C2 | B,3 z B,4 | B,4 B,4 | B,6 B,2 | B,2 G,2 A,2 B,2 | %7
 A,2 C2 _D2 C2 | C3 z A,4 | A,4 A,4 | (A,4 G,2) G,2 | G,2 A,2 F,2 B,2 | G,2 A,2 D,2 G,2 | %13
 =A,3 z F,4 | (F,2 G,2) A,4 | G,6 | A,4 G,4 |] %17
V:4
 E,2 | D,2 F,2 E,2 B,,2 | C,2 G,,2 A,,2 F,,2 | B,,3 z G,,4 | B,,4 B,,4 | E,6 E,2 | %6
 =E,2 E,2 C,2 C,2 | F,2 A,,2 B,,2 C,2 | F,3 z E,4 | D,4 C,4 | =B,,6 B,,2 | C,2 C,2 D,2 E,2 | %12
 =E,2 F,2 =B,,2 C,2 | F,,3 z =A,,4 | B,,4 B,,4 | [E,,E,]6 | A,,4 [E,,E,]4 |] %17

